branches/nugui/src/gui/icons/bond_clear.svg

<?xml version="1.0" encoding="UTF-8" standalone="no"?>
<!-- Created with Inkscape (http://www.inkscape.org/) -->

<svg
   xmlns:dc="http://purl.org/dc/elements/1.1/"
   xmlns:cc="http://creativecommons.org/ns#"
   xmlns:rdf="http://www.w3.org/1999/02/22-rdf-syntax-ns#"
   xmlns:svg="http://www.w3.org/2000/svg"
   xmlns="http://www.w3.org/2000/svg"
   xmlns:xlink="http://www.w3.org/1999/xlink"
   xmlns:inkscape="http://www.inkscape.org/namespaces/inkscape"
   version="1.0"
   width="100"
   height="100"
   id="svg2">
  <metadata
     id="metadata2566">
    <rdf:RDF>
      <cc:Work
         rdf:about="">
        <dc:format>image/svg+xml</dc:format>
        <dc:type
           rdf:resource="http://purl.org/dc/dcmitype/StillImage" />
      </cc:Work>
    </rdf:RDF>
  </metadata>
  <defs
     id="defs4">
    <linearGradient
       id="linearGradient3613">
      <stop
         id="stop3615"
         style="stop-color:#690000;stop-opacity:1"
         offset="0" />
      <stop
         id="stop3617"
         style="stop-color:#ff0000;stop-opacity:0"
         offset="1" />
    </linearGradient>
    <linearGradient
       id="linearGradient3384">
      <stop
         id="stop3386"
         style="stop-color:#0000ff;stop-opacity:1"
         offset="0" />
      <stop
         id="stop3388"
         style="stop-color:#000000;stop-opacity:1"
         offset="1" />
    </linearGradient>
    <linearGradient
       id="linearGradient3252">
      <stop
         id="stop3254"
         style="stop-color:#ffffff;stop-opacity:1"
         offset="0" />
      <stop
         id="stop3256"
         style="stop-color:#7f7fff;stop-opacity:0"
         offset="1" />
    </linearGradient>
    <linearGradient
       x1="25.398125"
       y1="63.345894"
       x2="90.625114"
       y2="63.345894"
       id="linearGradient2600"
       xlink:href="#linearGradient3384"
       gradientUnits="userSpaceOnUse"
       gradientTransform="matrix(0.2688926,0.2688926,-0.2688926,0.2688926,38.227733,-8.4494346)" />
    <radialGradient
       cx="58.01162"
       cy="63.345894"
       r="33.113495"
       fx="58.01162"
       fy="63.345894"
       id="radialGradient2602"
       xlink:href="#linearGradient3252"
       gradientUnits="userSpaceOnUse"
       gradientTransform="matrix(0.2134373,0,0,0.2134373,19.805211,5.9610473)" />
    <linearGradient
       x1="40.687019"
       y1="39.968079"
       x2="73.02729"
       y2="39.968079"
       id="linearGradient2604"
       xlink:href="#linearGradient3613"
       gradientUnits="userSpaceOnUse"
       gradientTransform="matrix(0,-0.1877941,-0.1877941,0,69.337754,23.997868)" />
    <linearGradient
       x1="25.398125"
       y1="63.345894"
       x2="90.625114"
       y2="63.345894"
       id="linearGradient2606"
       xlink:href="#linearGradient3384"
       gradientUnits="userSpaceOnUse" />
    <radialGradient
       cx="-89.470657"
       cy="6.2001209"
       r="33.767956"
       fx="-89.470657"
       fy="6.2001209"
       id="radialGradient2608"
       xlink:href="#linearGradient3252"
       gradientUnits="userSpaceOnUse"
       gradientTransform="matrix(0.4655719,0,0,0.03531171,95.362987,-11.878067)" />
  </defs>
  <path
     d="m 38.461203,82.400357 c 2.18419,6.81949 -1.574202,14.118283 -8.394075,16.30128 -6.819872,2.182993 -14.118008,-1.576675 -16.29981,-8.39693 -2.18419,-6.819491 1.574203,-14.118283 8.394075,-16.30128 6.819873,-2.182996 14.118007,1.576675 16.29981,8.39693 l 0,0 z"
     inkscape:connector-curvature="0"
     id="path3878"
     style="fill:#282828;fill-opacity:1;fill-rule:evenodd;stroke:none" />
  <path
     d="m 96.213458,64.437281 c 2.18419,6.819485 -1.574201,14.118285 -8.394072,16.301275 -6.819872,2.183 -14.118007,-1.57667 -16.29981,-8.39693 -2.18419,-6.819486 1.574203,-14.118278 8.394075,-16.301275 6.819873,-2.182996 14.118006,1.576675 16.299807,8.39693 l 0,0 z"
     inkscape:connector-curvature="0"
     id="path3876"
     style="fill:#282828;fill-opacity:1;fill-rule:evenodd;stroke:none" />
  <path
     d="m 85.590135,12.479563 c 2.18419,6.81949 -1.574202,14.118283 -8.394075,16.30128 -6.819872,2.182996 -14.118007,-1.576675 -16.29981,-8.39693 -2.18419,-6.819491 1.574203,-14.1182833 8.394075,-16.3012803 6.819873,-2.182996 14.118007,1.576675 16.29981,8.3969303 l 0,0 z"
     inkscape:connector-curvature="0"
     id="path3874"
     style="fill:#282828;fill-opacity:1;fill-rule:evenodd;stroke:none" />
  <path
     d="m 28.458575,30.056338 c 2.18419,6.81949 -1.574202,14.118283 -8.394075,16.30128 -6.819872,2.182996 -14.1180074,-1.576675 -16.2998101,-8.39693 -2.18419,-6.819491 1.574203,-14.118283 8.3940751,-16.30128 6.819873,-2.182996 14.118007,1.576675 16.29981,8.39693 l 0,0 z"
     inkscape:connector-curvature="0"
     id="path2888"
     style="fill:#282828;fill-opacity:1;fill-rule:evenodd;stroke:none" />
  <g
     transform="matrix(0.9955618,-0.3186728,0.3186728,0.9955618,27.087151,1.5077267)"
     id="g3558">
    <path
       d="m 49.066773,24.22879 c 0.0012,6.850275 -5.551709,12.404157 -12.401985,12.404157 -6.850275,0 -12.403184,-5.553882 -12.401985,-12.404157 -0.0012,-6.850276 5.55171,-12.404157 12.401985,-12.404157 6.850276,0 12.403184,5.553881 12.401985,12.404157 l 0,0 z"
       inkscape:connector-curvature="0"
       id="path3560"
       style="fill:#0000ff;fill-opacity:1;fill-rule:evenodd;stroke:#000000;stroke-width:0.38027155px;stroke-linecap:butt;stroke-linejoin:miter;stroke-opacity:1" />
    <path
       d="m 45.562914,32.95223 c -4.843029,4.844723 -12.696715,4.845411 -17.54059,0.0015 -4.843878,-4.843877 -4.843189,-12.697563 0.0015,-17.54059 4.843028,-4.844725 12.696714,-4.845413 17.540591,-0.0015 4.843875,4.843876 4.843187,12.697563 -0.0015,17.540591 l 0,0 z"
       inkscape:connector-curvature="0"
       id="path3562"
       style="opacity:0.71739131;fill:url(#linearGradient2600);fill-opacity:1;fill-rule:evenodd;stroke:none" />
    <path
       d="m 39.147988,19.481422 c 6.73e-4,3.844893 -3.11604,6.962154 -6.960935,6.962154 -3.844894,0 -6.961608,-3.117261 -6.960935,-6.962154 -6.73e-4,-3.844895 3.116041,-6.962154 6.960935,-6.962154 3.844895,0 6.961608,3.117259 6.960935,6.962154 l 0,0 z"
       inkscape:connector-curvature="0"
       id="path3564"
       style="fill:url(#radialGradient2602);fill-opacity:1;fill-rule:evenodd;stroke:none" />
  </g>
  <use
     transform="translate(10.623325,52.150869)"
     id="use2758"
     x="0"
     y="0"
     width="100"
     height="100"
     xlink:href="#g3558" />
  <g
     transform="matrix(1.3964752,-0.4470026,0.4470026,1.3964752,-37.96185,28.433815)"
     id="g2569">
    <path
       d="m 67.466951,10.330722 c 0.456285,0 0.901212,0.344306 1.249098,0.927925 0.695771,1.16724 0.695771,3.063996 0,4.231236 -0.347886,0.583619 -0.792813,0.820216 -1.249098,0.820216 -0.118125,0 -0.22232,7.54e-4 -0.358889,-0.0045 l -29.824828,0 0,-5.974199 30.183717,-6.92e-4 z"
       inkscape:connector-curvature="0"
       id="path3579"
       style="fill:#ff0000;fill-opacity:1;fill-rule:evenodd;stroke:#000000;stroke-width:0.09389705;stroke-linecap:round;stroke-linejoin:round;stroke-miterlimit:4;stroke-opacity:1;stroke-dasharray:none;stroke-dashoffset:2.63393869" />
    <path
       d="m 67.466951,10.330722 c 0.456285,0 0.901212,0.344305 1.249098,0.927924 0.695771,1.16724 0.695771,3.063997 0,4.231236 -0.347886,0.583621 -0.792813,0.820217 -1.249098,0.820217 -0.118125,0 -0.222321,7.53e-4 -0.358889,-0.0045 l -29.799318,0 0,-5.9742 30.158207,-6.91e-4 z"
       inkscape:connector-curvature="0"
       id="path3591"
       style="fill:url(#linearGradient2604);fill-opacity:1;fill-rule:evenodd;stroke:none" />
    <g
       transform="matrix(0,-0.1877941,-0.1877941,0,50.396529,11.128947)"
       id="g3621">
      <path
         d="M 90.625114,63.345894 C 90.628268,81.36006 76.025786,95.9651 58.011619,95.9651 c -18.014166,0 -32.616648,-14.60504 -32.613494,-32.619206 -0.0032,-18.014166 14.599328,-32.619206 32.613494,-32.619206 18.014167,0 32.616649,14.60504 32.613495,32.619206 l 0,0 z"
         inkscape:connector-curvature="0"
         transform="matrix(0,-0.2910472,0.4882663,0,-42.57093,87.178008)"
         id="path2467"
         style="fill:#ff0000;fill-rule:evenodd;stroke:#000000;stroke-width:1px;stroke-linecap:butt;stroke-linejoin:miter;stroke-opacity:1" />
      <path
         d="M 90.625114,63.345894 C 90.628268,81.36006 76.025786,95.9651 58.011619,95.9651 c -18.014166,0 -32.616648,-14.60504 -32.613494,-32.619206 -0.0032,-18.014166 14.599328,-32.619206 32.613494,-32.619206 18.014167,0 32.616649,14.60504 32.613495,32.619206 l 0,0 z"
         inkscape:connector-curvature="0"
         transform="matrix(0.3452564,-0.2058015,0.3452564,0.2058015,-53.442293,69.13691)"
         id="path2469"
         style="opacity:0.71739131;fill:url(#linearGradient2606);fill-opacity:1;fill-rule:evenodd;stroke:#000000;stroke-width:1px;stroke-linecap:butt;stroke-linejoin:miter;stroke-opacity:1" />
    </g>
    <rect
       width="31.442822"
       height="2.3848085"
       x="37.986553"
       y="-12.851535"
       transform="scale(1,-1)"
       id="rect3640"
       style="fill:url(#radialGradient2608);fill-opacity:1;fill-rule:evenodd;stroke:none" />
  </g>
  <path
     d="m 71.465791,64.862648 c 0.637191,-0.203961 1.412426,0.07797 2.15912,0.737474 1.493386,1.31901 2.341241,3.967783 1.891373,5.908816 -0.224935,0.970515 -0.740505,1.499801 -1.377695,1.703761 -0.164959,0.0528 -0.310128,0.100431 -0.503185,0.15416 L 31.985771,86.698635 29.315289,78.355814 71.465791,64.862648 z"
     inkscape:connector-curvature="0"
     id="path2626"
     style="fill:none;stroke:#000000;stroke-width:2;stroke-linecap:round;stroke-linejoin:round;stroke-miterlimit:4;stroke-opacity:1;stroke-dasharray:2, 4;stroke-dashoffset:0" />
  <path
     d="m 53.938971,65.575841 0.992991,-27.160462 -6.995363,2.381098 -2.769705,-8.137039 -4.359127,1.483771 2.769705,8.137039 -6.995363,2.381099 17.356862,20.914494 z"
     inkscape:connector-curvature="0"
     id="path6783"
     style="fill:#150f0e;fill-opacity:1;fill-rule:evenodd;stroke:#5c4f43;stroke-width:1.05251062;stroke-linecap:round;stroke-linejoin:round;stroke-miterlimit:4;stroke-opacity:1;stroke-dashoffset:0" />
  <use
     transform="translate(-46.742631,70.500249)"
     id="use2760"
     x="0"
     y="0"
     width="100"
     height="100"
     xlink:href="#g3558" />
  <use
     transform="translate(-57.172805,17.963077)"
     id="use2762"
     x="0"
     y="0"
     width="100"
     height="100"
     xlink:href="#g3558" />
</svg>

<?xml version="1.0" encoding="UTF-8" standalone="no"?>
<!-- Created with Inkscape (http://www.inkscape.org/) -->
<svg
   xmlns:svg="http://www.w3.org/2000/svg"
   xmlns="http://www.w3.org/2000/svg"
   xmlns:xlink="http://www.w3.org/1999/xlink"
   version="1.0"
   width="100"
   height="100"
   id="svg2">
  <defs
     id="defs4">
    <linearGradient
       id="linearGradient3613">
      <stop
         id="stop3615"
         style="stop-color:#690000;stop-opacity:1"
         offset="0" />
      <stop
         id="stop3617"
         style="stop-color:#ff0000;stop-opacity:0"
         offset="1" />
    </linearGradient>
    <linearGradient
       id="linearGradient3384">
      <stop
         id="stop3386"
         style="stop-color:#0000ff;stop-opacity:1"
         offset="0" />
      <stop
         id="stop3388"
         style="stop-color:#000000;stop-opacity:1"
         offset="1" />
    </linearGradient>
    <linearGradient
       id="linearGradient3252">
      <stop
         id="stop3254"
         style="stop-color:#ffffff;stop-opacity:1"
         offset="0" />
      <stop
         id="stop3256"
         style="stop-color:#7f7fff;stop-opacity:0"
         offset="1" />
    </linearGradient>
    <linearGradient
       x1="25.398125"
       y1="63.345894"
       x2="90.625114"
       y2="63.345894"
       id="linearGradient2600"
       xlink:href="#linearGradient3384"
       gradientUnits="userSpaceOnUse"
       gradientTransform="matrix(0.2688926,0.2688926,-0.2688926,0.2688926,38.227733,-8.4494346)" />
    <radialGradient
       cx="58.01162"
       cy="63.345894"
       r="33.113495"
       fx="58.01162"
       fy="63.345894"
       id="radialGradient2602"
       xlink:href="#linearGradient3252"
       gradientUnits="userSpaceOnUse"
       gradientTransform="matrix(0.2134373,0,0,0.2134373,19.805211,5.9610473)" />
    <linearGradient
       x1="40.687019"
       y1="39.968079"
       x2="73.02729"
       y2="39.968079"
       id="linearGradient2604"
       xlink:href="#linearGradient3613"
       gradientUnits="userSpaceOnUse"
       gradientTransform="matrix(0,-0.1877941,-0.1877941,0,69.337754,23.997868)" />
    <linearGradient
       x1="25.398125"
       y1="63.345894"
       x2="90.625114"
       y2="63.345894"
       id="linearGradient2606"
       xlink:href="#linearGradient3384"
       gradientUnits="userSpaceOnUse" />
    <radialGradient
       cx="-89.470657"
       cy="6.2001209"
       r="33.767956"
       fx="-89.470657"
       fy="6.2001209"
       id="radialGradient2608"
       xlink:href="#linearGradient3252"
       gradientUnits="userSpaceOnUse"
       gradientTransform="matrix(0.4655719,0,0,3.531171e-2,95.362987,-11.878067)" />
  </defs>
  <path
     d="M 38.461203,82.400357 C 40.645393,89.219847 36.887001,96.51864 30.067128,98.701637 C 23.247256,100.88463 15.94912,97.124962 13.767318,90.304707 C 11.583128,83.485216 15.341521,76.186424 22.161393,74.003427 C 28.981266,71.820431 36.2794,75.580102 38.461203,82.400357 L 38.461203,82.400357 z"
     id="path3878"
     style="fill:#282828;fill-opacity:1;fill-rule:evenodd;stroke:none" />
  <path
     d="M 96.213458,64.437281 C 98.397648,71.256766 94.639257,78.555566 87.819386,80.738556 C 80.999514,82.921556 73.701379,79.161886 71.519576,72.341626 C 69.335386,65.52214 73.093779,58.223348 79.913651,56.040351 C 86.733524,53.857355 94.031657,57.617026 96.213458,64.437281 L 96.213458,64.437281 z"
     id="path3876"
     style="fill:#282828;fill-opacity:1;fill-rule:evenodd;stroke:none" />
  <path
     d="M 85.590135,12.479563 C 87.774325,19.299053 84.015933,26.597846 77.19606,28.780843 C 70.376188,30.963839 63.078053,27.204168 60.89625,20.383913 C 58.71206,13.564422 62.470453,6.2656297 69.290325,4.0826327 C 76.110198,1.8996367 83.408332,5.6593077 85.590135,12.479563 L 85.590135,12.479563 L 85.590135,12.479563 z"
     id="path3874"
     style="fill:#282828;fill-opacity:1;fill-rule:evenodd;stroke:none" />
  <path
     d="M 28.458575,30.056338 C 30.642765,36.875828 26.884373,44.174621 20.0645,46.357618 C 13.244628,48.540614 5.9464926,44.780943 3.7646899,37.960688 C 1.5804999,31.141197 5.3388929,23.842405 12.158765,21.659408 C 18.978638,19.476412 26.276772,23.236083 28.458575,30.056338 L 28.458575,30.056338 L 28.458575,30.056338 z"
     id="path2888"
     style="fill:#282828;fill-opacity:1;fill-rule:evenodd;stroke:none" />
  <g
     transform="matrix(0.9955618,-0.3186728,0.3186728,0.9955618,27.087151,1.5077267)"
     id="g3558">
    <path
       d="M 49.066773,24.22879 C 49.067973,31.079065 43.515064,36.632947 36.664788,36.632947 C 29.814513,36.632947 24.261604,31.079065 24.262803,24.22879 C 24.261603,17.378514 29.814513,11.824633 36.664788,11.824633 C 43.515064,11.824633 49.067972,17.378514 49.066773,24.22879 L 49.066773,24.22879 L 49.066773,24.22879 z"
       id="path3560"
       style="fill:#0000ff;fill-opacity:1;fill-rule:evenodd;stroke:#000000;stroke-width:0.38027155px;stroke-linecap:butt;stroke-linejoin:miter;stroke-opacity:1" />
    <path
       d="M 45.562914,32.95223 C 40.719885,37.796953 32.866199,37.797641 28.022324,32.95373 C 23.178446,28.109853 23.179135,20.256167 28.023824,15.41314 C 32.866852,10.568415 40.720538,10.567727 45.564415,15.41164 C 50.40829,20.255516 50.407602,28.109203 45.562915,32.952231 L 45.562915,32.952231 L 45.562914,32.95223 z"
       id="path3562"
       style="opacity:0.71739131;fill:url(#linearGradient2600);fill-opacity:1;fill-rule:evenodd;stroke:none" />
    <path
       d="M 39.147988,19.481422 C 39.148661,23.326315 36.031948,26.443576 32.187053,26.443576 C 28.342159,26.443576 25.225445,23.326315 25.226118,19.481422 C 25.225445,15.636527 28.342159,12.519268 32.187053,12.519268 C 36.031948,12.519268 39.148661,15.636527 39.147988,19.481422 L 39.147988,19.481422 z"
       id="path3564"
       style="fill:url(#radialGradient2602);fill-opacity:1;fill-rule:evenodd;stroke:none" />
  </g>
  <use
     transform="translate(10.623325,52.150869)"
     id="use2758"
     x="0"
     y="0"
     width="100"
     height="100"
     xlink:href="#g3558" />
  <g
     transform="matrix(1.3964752,-0.4470026,0.4470026,1.3964752,-37.96185,28.433815)"
     id="g2569">
    <path
       d="M 67.466951,10.330722 C 67.923236,10.330722 68.368163,10.675028 68.716049,11.258647 C 69.41182,12.425887 69.41182,14.322643 68.716049,15.489883 C 68.368163,16.073502 67.923236,16.310099 67.466951,16.310099 C 67.348826,16.310099 67.244631,16.310853 67.108062,16.305599 L 37.283234,16.305599 L 37.283234,10.3314 L 67.466951,10.330708 L 67.466951,10.330722 z"
       id="path3579"
       style="fill:#ff0000;fill-opacity:1;fill-rule:evenodd;stroke:#000000;stroke-width:0.09389705;stroke-linecap:round;stroke-linejoin:round;stroke-miterlimit:4;stroke-dasharray:none;stroke-dashoffset:2.63393869;stroke-opacity:1" />
    <path
       d="M 67.466951,10.330722 C 67.923236,10.330722 68.368163,10.675027 68.716049,11.258646 C 69.41182,12.425886 69.41182,14.322643 68.716049,15.489882 C 68.368163,16.073503 67.923236,16.310099 67.466951,16.310099 C 67.348826,16.310099 67.24463,16.310852 67.108062,16.305599 L 37.308744,16.305599 L 37.308744,10.331399 L 67.466951,10.330708 L 67.466951,10.330722 z"
       id="path3591"
       style="fill:url(#linearGradient2604);fill-opacity:1;fill-rule:evenodd;stroke:none" />
    <g
       transform="matrix(0,-0.1877941,-0.1877941,0,50.396529,11.128947)"
       id="g3621">
      <path
         d="M 90.625114,63.345894 C 90.628268,81.36006 76.025786,95.9651 58.011619,95.9651 C 39.997453,95.9651 25.394971,81.36006 25.398125,63.345894 C 25.394925,45.331728 39.997453,30.726688 58.011619,30.726688 C 76.025786,30.726688 90.628268,45.331728 90.625114,63.345894 L 90.625114,63.345894 L 90.625114,63.345894 z"
         transform="matrix(0,-0.2910472,0.4882663,0,-42.57093,87.178008)"
         id="path2467"
         style="fill:#ff0000;fill-rule:evenodd;stroke:#000000;stroke-width:1px;stroke-linecap:butt;stroke-linejoin:miter;stroke-opacity:1" />
      <path
         d="M 90.625114,63.345894 C 90.628268,81.36006 76.025786,95.9651 58.011619,95.9651 C 39.997453,95.9651 25.394971,81.36006 25.398125,63.345894 C 25.394925,45.331728 39.997453,30.726688 58.011619,30.726688 C 76.025786,30.726688 90.628268,45.331728 90.625114,63.345894 L 90.625114,63.345894 L 90.625114,63.345894 z"
         transform="matrix(0.3452564,-0.2058015,0.3452564,0.2058015,-53.442293,69.13691)"
         id="path2469"
         style="opacity:0.71739131;fill:url(#linearGradient2606);fill-opacity:1;fill-rule:evenodd;stroke:#000000;stroke-width:1px;stroke-linecap:butt;stroke-linejoin:miter;stroke-opacity:1" />
    </g>
    <rect
       width="31.442822"
       height="2.3848085"
       x="37.986553"
       y="-12.851535"
       transform="scale(1,-1)"
       id="rect3640"
       style="fill:url(#radialGradient2608);fill-opacity:1;fill-rule:evenodd;stroke:none" />
  </g>
  <path
     d="M 71.465791,64.862648 C 72.102982,64.658687 72.878217,64.940618 73.624911,65.600122 C 75.118297,66.919132 75.966152,69.567905 75.516284,71.508938 C 75.291349,72.479453 74.775779,73.008739 74.138589,73.212699 C 73.97363,73.265499 73.828461,73.31313 73.635404,73.366859 L 31.985771,86.698635 L 29.315289,78.355814 L 71.465791,64.862648 z"
     id="path2626"
     style="fill:none;stroke:#000000;stroke-width:2;stroke-linecap:round;stroke-linejoin:round;stroke-miterlimit:4;stroke-dasharray:2, 4;stroke-dashoffset:0;stroke-opacity:1" />
  <path
     d="M 53.938971,65.575841 L 54.931962,38.415379 L 47.936599,40.796477 L 45.166894,32.659438 L 40.807767,34.143209 L 43.577472,42.280248 L 36.582109,44.661347 L 53.938971,65.575841 L 53.938971,65.575841 z"
     id="path6783"
     style="fill:#150f0e;fill-opacity:1;fill-rule:evenodd;stroke:#5c4f43;stroke-width:1.05251062;stroke-linecap:round;stroke-linejoin:round;stroke-miterlimit:4;stroke-dashoffset:0;stroke-opacity:1" />
  <use
     transform="translate(-46.742631,70.500249)"
     id="use2760"
     x="0"
     y="0"
     width="100"
     height="100"
     xlink:href="#g3558" />
  <use
     transform="translate(-57.172805,17.963077)"
     id="use2762"
     x="0"
     y="0"
     width="100"
     height="100"
     xlink:href="#g3558" />
</svg>
